agir/events/components/eventPage/assets/Outlook.svg

<svg width="16" height="16" viewBox="0 0 16 16" fill="none" xmlns="http://www.w3.org/2000/svg">
<g clip-path="url(#clip0)">
<path d="M15.9978 8.14355C15.9981 8.16583 15.9951 8.18802 15.989 8.20943C15.9877 8.21983 15.9851 8.23003 15.9814 8.23984C15.9827 8.2411 15.9814 8.24237 15.9802 8.24364C15.978 8.25289 15.9746 8.26183 15.9702 8.27024C15.965 8.2834 15.9586 8.29611 15.9513 8.30825C15.9214 8.36521 15.8748 8.41161 15.8179 8.44127L15.2339 8.77319L15.1835 8.80233L14.5616 9.15453L14.4181 9.23561L11.7094 10.7761L11.6567 10.8065L10.6245 11.3931L10.4961 11.4653L10.369 11.5375L10.3047 11.5743C10.2833 11.5857 10.2608 11.5983 10.2381 11.611C10.2356 11.6123 10.2343 11.6135 10.2318 11.6148C10.1853 11.6395 10.1358 11.6578 10.0845 11.6693H10.0832C10.0212 11.6856 9.95728 11.6937 9.89313 11.6934C9.77519 11.6943 9.65867 11.6674 9.55298 11.6148C9.53534 11.6047 9.5177 11.5945 9.50006 11.5857C9.49376 11.5819 9.48746 11.5781 9.4799 11.5743L8.67184 11.1144L8.56236 11.0523L8.48425 11.008L8.46787 10.9991L8.40879 10.9649L8.39997 10.9598L8.37351 10.9446L8.35461 10.9332L8.33446 10.9218L8.30926 10.9079L8.27915 10.8914L8.26403 10.8826L8.26025 10.88L8.21994 10.8572L8.18466 10.8369L8.17458 10.8319L8.12935 10.8065L5.84753 9.50926L5.36677 9.23561L5.22315 9.15453L4.60129 8.80233L4.53528 8.76433L3.96759 8.44127C3.91091 8.41132 3.86445 8.36499 3.83417 8.30825C3.82688 8.29567 3.82056 8.28254 3.81528 8.26898L3.78882 8.14355C3.78869 8.08445 3.80412 8.02637 3.83352 7.97519C3.86293 7.92402 3.90527 7.88158 3.95625 7.85217L3.96003 7.84837C3.96255 7.84837 3.96507 7.84584 3.96759 7.84584L4.53528 7.52405L4.60192 7.48604L7.2874 5.95945L7.46113 5.86063L8.1296 5.48183L8.17483 5.45523L8.18491 5.45016L8.22019 5.42989L8.2605 5.40708L8.26428 5.40455L8.2794 5.39568L8.30951 5.37921L8.33471 5.36528L8.35486 5.35387L8.37376 5.34374L8.40022 5.32854L8.40904 5.32347L8.46812 5.28926L8.4845 5.2804L8.56261 5.23605L8.67209 5.17271L9.48016 4.7141C9.50535 4.70016 9.52929 4.68623 9.55323 4.67356C9.65868 4.62106 9.77477 4.59375 9.89244 4.59375C10.0101 4.59375 10.1262 4.62106 10.2317 4.67356C10.2568 4.68623 10.2807 4.70016 10.3046 4.7141L11.6565 5.48183L12.4974 5.95945L15.1835 7.48604L15.2339 7.51518L15.8179 7.84584C15.8217 7.84584 15.8242 7.84837 15.8267 7.84837L15.8293 7.85217C15.8806 7.88131 15.9232 7.92366 15.9528 7.97487C15.9825 8.02609 15.998 8.08431 15.9978 8.14355V8.14355Z" fill="#123B6D"/>
<path d="M11.7165 2.56738H8.18896V5.86128L11.7165 9.15518H15.2441V5.86128L11.7165 2.56738Z" fill="#28A8EA"/>
<path d="M11.7165 9.15523V12.4491H8.18894L8.12595 12.3959L8.11713 12.3883V12.387L8.10579 12.3769L8.08312 12.3579L8.04028 12.3212L8.0365 12.3186L7.98107 12.2705L7.97981 12.2692L7.96595 12.2578L7.95965 12.2528L7.95335 12.2464L7.87902 12.1831H7.87776L7.86264 12.1691L7.85257 12.1603L7.84627 12.1552L7.83115 12.1425L7.79335 12.1109L7.71776 12.0488L4.66138 9.53402L4.5354 9.43014V5.86133H8.18894L8.26453 5.93227L8.28343 5.95001L8.33887 6.00195L8.37792 6.03742L8.4132 6.07036L8.47241 6.12611L8.48879 6.14131L8.5669 6.21479L11.7165 9.15523Z" fill="#0364B8"/>
<path d="M8.18894 9.15527H4.66138V12.4492H8.18894V9.15527Z" fill="#14447D"/>
<path d="M15.2441 9.15527H11.7166V12.4492H15.2441V9.15527Z" fill="#0078D4"/>
<path d="M15.2441 2.56738H11.7166V5.86128H15.2441V2.56738Z" fill="#50D9FF"/>
<path d="M8.18894 2.56738H4.5354V5.86128H8.18894V2.56738Z" fill="#0078D4"/>
<path d="M11.7165 5.86133H8.18896V9.15523H11.7165V5.86133Z" fill="#0078D4"/>
<path d="M5.2132 0.666992H14.5663C14.6553 0.666992 14.7434 0.684622 14.8256 0.718874C14.9079 0.753127 14.9826 0.803332 15.0455 0.866623C15.1085 0.929914 15.1584 1.00505 15.1925 1.08775C15.2265 1.17044 15.2441 1.25907 15.2441 1.34858V2.56732H4.5354V1.34858C4.5354 1.25907 4.55293 1.17044 4.58699 1.08775C4.62106 1.00505 4.67098 0.929914 4.73392 0.866623C4.79686 0.803332 4.87158 0.753127 4.95381 0.718874C5.03605 0.684622 5.12419 0.666992 5.2132 0.666992V0.666992Z" fill="#0358A7"/>
<path opacity="0.1" d="M15.2441 8.24611L10.0714 11.0686L10.0472 11.0827C10.0391 11.0877 10.0307 11.0922 10.022 11.0962C10.0127 11.1007 10.003 11.1046 9.99342 11.108L9.8246 11.0129L9.80356 11.0016C9.79348 10.9965 9.78328 10.9912 9.7737 10.9851L9.7611 10.9773L8.7366 10.4046L8.65294 10.3571L8.58428 10.3191L8.4331 10.2336L4.5354 8.05469V12.1415H15.2441V8.24611Z" fill="#0A2767"/>
<path opacity="0.1" d="M15.2441 8.37307L10.0714 11.1956L10.0472 11.2096C10.0391 11.2146 10.0307 11.2192 10.022 11.2232C10.0127 11.2276 10.003 11.2315 9.99342 11.235L9.8246 11.1398L9.80356 11.1285C9.79348 11.1235 9.78328 11.1182 9.7737 11.1121L9.7611 11.1042L8.7366 10.5316L8.65294 10.4841L8.58428 10.4461L8.4331 10.3606L4.5354 8.18164V12.2685H15.2441V8.37307Z" fill="#0A2767"/>
<path opacity="0.1" d="M15.2441 8.50002L10.0714 11.3225L10.0472 11.3366C10.0391 11.3416 10.0307 11.3461 10.022 11.3501C10.0127 11.3546 10.003 11.3585 9.99342 11.3619L9.8246 11.2668L9.80356 11.2555C9.79348 11.2504 9.78328 11.2451 9.7737 11.239L9.7611 11.2312L8.7366 10.6585L8.65294 10.611L8.58428 10.573L8.4331 10.4875L4.5354 8.30859V12.3954H15.2441V8.50002Z" fill="#0A2767"/>
<path opacity="0.1" d="M15.2441 8.626L10.0714 11.4485L10.0472 11.4625C10.0391 11.4676 10.0307 11.4721 10.022 11.4761C10.0127 11.4805 10.003 11.4845 9.99342 11.4879L9.8246 11.3927L9.80356 11.3815C9.79348 11.3764 9.78328 11.3711 9.7737 11.365L9.7611 11.3571L8.7366 10.7845L8.65294 10.737L8.58428 10.699L8.4331 10.6135L4.5354 8.43457V12.5214H15.2441V8.626Z" fill="#0A2767"/>
<path d="M15.8287 8.42578L15.8219 8.42945L15.8203 8.43047L10.3022 11.4412C10.2783 11.4561 10.2536 11.4695 10.2282 11.4816V11.4816C10.122 11.5319 10.0061 11.5579 9.88876 11.5579C9.7714 11.5579 9.65549 11.5319 9.54929 11.4816V11.4816C9.52393 11.4695 9.49924 11.456 9.47534 11.4412L9.735 13.3185L15.2352 14.9714C15.3955 14.9721 15.5522 14.9235 15.6842 14.832C15.7805 14.7665 15.8596 14.6784 15.9144 14.5753C15.9693 14.4722 15.9984 14.3572 15.9992 14.2403V8.14453C15.9986 8.2025 15.9824 8.25922 15.9524 8.30873C15.9224 8.35823 15.8797 8.39867 15.8287 8.42578V8.42578Z" fill="#1490DF"/>
<path opacity="0.05" d="M10.517 11.3291L10.3118 11.441C10.2879 11.4558 10.2632 11.4692 10.2379 11.4814V11.4814C10.1317 11.5316 10.0158 11.5576 9.89846 11.5576C9.78113 11.5576 9.66524 11.5316 9.55906 11.4814V11.4814C9.53371 11.4692 9.50903 11.4558 9.48511 11.441L9.74476 13.3182L15.245 14.9711C15.4053 14.9718 15.562 14.9232 15.6941 14.8318C15.8407 14.731 15.9455 14.5798 15.9888 14.4066L10.517 11.3291Z" fill="black"/>
<path opacity="0.05" d="M15.9468 14.5277L10.386 11.4004L10.3118 11.4408C10.2879 11.4556 10.2632 11.4691 10.2379 11.4812V11.4812C10.1317 11.5314 10.0158 11.5575 9.89846 11.5575C9.78113 11.5575 9.66524 11.5314 9.55906 11.4812V11.4812C9.53371 11.4691 9.50903 11.4556 9.48511 11.4408L9.74476 13.3181L15.245 14.971C15.4053 14.9717 15.562 14.923 15.6941 14.8316C15.8042 14.7552 15.8916 14.6502 15.9468 14.5277V14.5277Z" fill="black"/>
<path opacity="0.05" d="M15.8851 14.6381L10.2559 11.473L10.2379 11.4818C10.1317 11.532 10.0158 11.5581 9.89846 11.5581C9.78113 11.5581 9.66524 11.532 9.55906 11.4818V11.4818C9.53371 11.4697 9.50903 11.4562 9.48511 11.4414L9.74476 13.3187L15.245 14.9716C15.4053 14.9723 15.562 14.9236 15.6941 14.8322C15.769 14.7798 15.8337 14.714 15.8851 14.6381Z" fill="black"/>
<path opacity="0.05" d="M15.8039 14.7374L10.1514 11.5585L10.1234 11.5434L10.1012 11.5308C9.92016 11.5786 9.72819 11.5609 9.55882 11.4808V11.4808C9.53347 11.4687 9.50878 11.4552 9.48486 11.4404L9.74452 13.3177L15.2447 14.9706C15.4051 14.9713 15.5618 14.9227 15.6939 14.8312C15.7334 14.8035 15.7702 14.7721 15.8039 14.7374V14.7374Z" fill="black"/>
<path d="M15.7016 14.8251C15.6853 14.8365 15.6689 14.8479 15.6525 14.858C15.6361 14.8682 15.6185 14.877 15.6009 14.8859C15.5807 14.8961 15.5605 14.9049 15.5404 14.9138C15.5391 14.9138 15.5379 14.9151 15.5366 14.9151C15.5139 14.9235 15.4913 14.9311 15.4686 14.9379C15.4432 14.9467 15.4171 14.9531 15.3905 14.9569C15.3847 14.9587 15.3788 14.96 15.3728 14.9607C15.359 14.9632 15.3451 14.9645 15.33 14.9657C15.3028 14.9693 15.2755 14.971 15.2481 14.9708H4.55456C4.45512 14.972 4.35643 14.9534 4.26412 14.9162C4.17181 14.8791 4.08769 14.824 4.01656 14.7541C3.94543 14.6842 3.88869 14.6009 3.84957 14.509C3.81045 14.417 3.78973 14.3183 3.78857 14.2183V8.14355L3.96243 8.24111L3.96495 8.24237C3.96621 8.24364 3.96621 8.24364 3.96747 8.24364L4.53566 8.56163L5.59645 9.15453L8.1892 10.6038L8.2648 10.6469L8.28369 10.6571L8.33913 10.6887L8.37818 10.7103L8.41346 10.7293L8.47267 10.7635L8.48905 10.7723L8.56716 10.8154L9.50448 11.3399C9.52842 11.3551 9.55361 11.369 9.57881 11.3817L9.89125 11.5578L10.089 11.6693H10.0903L10.9306 12.1418L11.1561 12.2685L11.3816 12.3952L11.4761 12.4484L11.6072 12.5219L15.7016 14.8251Z" fill="#28A8EA"/>
<path opacity="0.05" d="M8.56694 4.34021V11.8934C8.56706 11.9784 8.55124 12.0626 8.52032 12.1417C8.50305 12.1861 8.48109 12.2286 8.45481 12.2684C8.42462 12.3154 8.38816 12.358 8.34647 12.3951C8.3262 12.4142 8.30474 12.4319 8.28221 12.4483C8.24173 12.4774 8.19822 12.502 8.15245 12.5217C8.06909 12.557 7.97956 12.5751 7.88914 12.575H3.77954V12.0682H3.78836V8.1434C3.78823 8.08428 3.80367 8.02618 3.8331 7.975C3.86253 7.92383 3.9049 7.88139 3.95592 7.85201L3.9597 7.84821C3.96222 7.84821 3.96474 7.84568 3.96726 7.84568L4.53545 7.52389V3.58008H7.88914C7.99521 3.58074 8.09901 3.611 8.18899 3.66749C8.30288 3.73893 8.39714 3.83793 8.46317 3.95544C8.52919 4.07296 8.56487 4.20525 8.56694 4.34021Z" fill="black"/>
<path opacity="0.075" d="M8.47245 4.35343V11.7672C8.4731 11.9001 8.43547 12.0304 8.3641 12.1422C8.3348 12.1892 8.29919 12.2318 8.25828 12.2689C8.23724 12.2903 8.21401 12.3094 8.18899 12.3259C8.16308 12.3457 8.13521 12.3626 8.10584 12.3766C8.09324 12.3842 8.08064 12.3893 8.06804 12.3956C7.98516 12.431 7.89602 12.4491 7.80599 12.4488H3.77954V12.0688H3.78836V8.14395C3.78823 8.08483 3.80367 8.02673 3.8331 7.97556C3.86253 7.92438 3.9049 7.88195 3.95592 7.85257L3.9597 7.84877C3.96222 7.84877 3.96474 7.84623 3.96726 7.84623L4.53545 7.52444V3.6123H7.79466C7.93923 3.61417 8.07864 3.66658 8.18899 3.76053C8.27638 3.83258 8.34704 3.92299 8.39601 4.02542C8.44498 4.12784 8.47107 4.23979 8.47245 4.35343Z" fill="black"/>
<path opacity="0.1" d="M8.37797 4.36441V11.6401C8.38009 11.82 8.31228 11.9937 8.18899 12.1241C8.18301 12.1303 8.1767 12.1362 8.17009 12.1418C8.11654 12.195 8.05378 12.238 7.9849 12.2685C7.98364 12.2685 7.98238 12.2698 7.98112 12.2698C7.89973 12.3041 7.81236 12.3217 7.72411 12.3217H3.77954V12.0683H3.78836V8.14353C3.78823 8.08441 3.80367 8.02631 3.8331 7.97513C3.86253 7.92396 3.9049 7.88152 3.95592 7.85214L3.9597 7.84834C3.96222 7.84834 3.96474 7.84581 3.96726 7.84581L4.53545 7.52402V3.64355H7.70017C7.79325 3.64493 7.88497 3.66621 7.96925 3.70596C8.05353 3.74571 8.12843 3.80304 8.18899 3.87413C8.3095 4.00881 8.37673 4.18324 8.37797 4.36441V4.36441Z" fill="black"/>
<path opacity="0.125" d="M8.28347 4.37637V11.514C8.28423 11.6414 8.25165 11.7668 8.18899 11.8776C8.12322 11.9944 8.02217 12.0872 7.90048 12.1424C7.88536 12.1487 7.86899 12.155 7.85261 12.1601C7.78494 12.1837 7.71382 12.1957 7.64222 12.1956H3.77954V12.0689H3.78836V8.14408C3.78823 8.08496 3.80367 8.02687 3.8331 7.97569C3.86253 7.92451 3.9049 7.88208 3.95592 7.8527L3.9597 7.8489C3.96222 7.8489 3.96474 7.84636 3.96726 7.84636L4.53545 7.52457V3.67578H7.60568C7.72492 3.67723 7.84166 3.71033 7.94409 3.77174C8.04652 3.83314 8.131 3.92066 8.18899 4.02544C8.25081 4.13195 8.28342 4.25305 8.28347 4.37637V4.37637Z" fill="black"/>
<path opacity="0.2" d="M8.18921 4.38862V11.3869C8.19658 11.5344 8.15401 11.6802 8.06844 11.8003C7.98287 11.9204 7.85934 12.0078 7.71803 12.0482C7.66626 12.0621 7.61286 12.0689 7.55929 12.0685H3.78857V8.14366C3.78845 8.08454 3.80389 8.02644 3.83332 7.97527C3.86274 7.92409 3.90512 7.88166 3.95613 7.85228L3.95991 7.84848C3.96243 7.84848 3.96495 7.84594 3.96747 7.84594L4.53566 7.52415V3.70703H7.51141C7.69115 3.7071 7.86352 3.77893 7.99061 3.90674C8.11771 4.03454 8.18914 4.20787 8.18921 4.38862Z" fill="black"/>
<path d="M7.51118 3.70703H0.677795C0.303459 3.70703 0 4.01219 0 4.38862V11.2602C0 11.6366 0.303459 11.9418 0.677795 11.9418H7.51118C7.88552 11.9418 8.18898 11.6366 8.18898 11.2602V4.38862C8.18898 4.01219 7.88552 3.70703 7.51118 3.70703Z" fill="url(#paint0_linear)"/>
<path d="M2.27285 6.70264C2.42908 6.36827 2.68107 6.08844 2.9965 5.89905C3.34601 5.69789 3.74395 5.59763 4.14649 5.60932C4.51943 5.60114 4.88744 5.6962 5.2103 5.8841C5.51406 6.0661 5.75872 6.3329 5.91455 6.65209C6.08412 7.00381 6.16865 7.39084 6.16123 7.78164C6.16945 8.19015 6.08243 8.59492 5.90712 8.96352C5.74784 9.294 5.49579 9.57033 5.18208 9.75836C4.84667 9.95221 4.46482 10.0498 4.07808 10.0406C3.69714 10.0497 3.32101 9.95364 2.99058 9.7628C2.68428 9.58051 2.43667 9.31336 2.27739 8.99329C2.10679 8.64659 2.02138 8.2638 2.02831 7.87704C2.02066 7.47203 2.10426 7.07053 2.27285 6.70264ZM3.044 8.58966C3.12727 8.8011 3.2684 8.98449 3.45105 9.11859C3.63714 9.24946 3.86001 9.31698 4.08702 9.31128C4.3288 9.32081 4.56711 9.25109 4.76608 9.11263C4.94657 8.97849 5.08398 8.79407 5.16129 8.58219C5.248 8.34602 5.29071 8.09582 5.28728 7.8441C5.29003 7.58998 5.24985 7.33724 5.16847 7.09664C5.09667 6.88046 4.96434 6.68972 4.78737 6.54732C4.59357 6.40187 4.35585 6.328 4.11424 6.33815C3.8822 6.33211 3.65422 6.40015 3.46302 6.53249C3.27687 6.66696 3.13266 6.85196 3.04728 7.06585C2.85818 7.55584 2.8571 8.09905 3.04425 8.58979L3.044 8.58966Z" fill="white"/>
</g>
<defs>
<linearGradient id="paint0_linear" x1="1.42186" y1="3.16949" x2="6.81193" y2="12.4533" gradientUnits="userSpaceOnUse">
<stop stop-color="#1784D9"/>
<stop offset="0.5" stop-color="#107AD5"/>
<stop offset="1" stop-color="#0A63C9"/>
</linearGradient>
<clipPath id="clip0">
<rect width="16" height="16" fill="white"/>
</clipPath>
</defs>
</svg>

<svg width="16" height="16" fill="none" xmlns="http://www.w3.org/2000/svg"><g clip-path="url(#a)"><path d="M15.998 8.144a.23.23 0 0 1-.009.065.133.133 0 0 1-.008.03c.002.002 0 .003 0 .005a.258.258 0 0 1-.029.065.315.315 0 0 1-.134.132l-.584.332-.05.03-.622.352-.144.08-2.709 1.541-.052.03-1.033.587-.128.072-.127.072-.064.037-.067.037-.006.004a.588.588 0 0 1-.147.054h-.002a.75.75 0 0 1-.53-.054l-.053-.03-.02-.01-.808-.46-.11-.063-.078-.044-.016-.009-.06-.034-.008-.005-.026-.015-.02-.012-.02-.011-.025-.014-.03-.017-.015-.008-.004-.003-.04-.023-.035-.02-.01-.005-.046-.026L5.848 9.51l-.481-.273-.144-.081-.622-.353-.066-.038-.567-.323a.322.322 0 0 1-.153-.172l-.026-.125a.337.337 0 0 1 .167-.292l.004-.004.008-.002.567-.322.067-.038L7.287 5.96l.174-.098.669-.38.045-.026.01-.005.035-.02.04-.023.004-.002.015-.01.03-.016.026-.014.02-.011.019-.01.026-.015.009-.006.06-.034.016-.009.078-.044.11-.063.807-.459.073-.04a.761.761 0 0 1 .752.04l1.351.768.841.477 2.687 1.527.05.03.584.33.009.002.002.004a.332.332 0 0 1 .169.292Z" fill="#123B6D"/><path d="M11.716 2.567H8.19v3.294l3.527 3.294h3.528V5.861l-3.527-3.294Z" fill="#28A8EA"/><path d="M11.716 9.155v3.294H8.19l-.063-.053-.009-.008v-.001l-.011-.01-.023-.02-.043-.036-.003-.002-.056-.049H7.98l-.014-.012-.006-.005-.007-.007-.074-.063h-.001l-.015-.014-.01-.009-.007-.005-.015-.012-.038-.032-.075-.062L4.66 9.534l-.126-.104V5.861H8.19l.076.071.018.018.056.052.039.035.035.033.06.056.016.015.078.074 3.15 2.94Z" fill="#0364B8"/><path d="M8.189 9.155H4.66v3.294h3.53V9.155Z" fill="#14447D"/><path d="M15.244 9.155h-3.527v3.294h3.527V9.155Z" fill="#0078D4"/><path d="M15.244 2.567h-3.527v3.294h3.527V2.567Z" fill="#50D9FF"/><path d="M8.189 2.567H4.535v3.294H8.19V2.567Zm3.527 3.294H8.19v3.294h3.527V5.861Z" fill="#0078D4"/><path d="M5.213.667h9.353a.674.674 0 0 1 .627.42.686.686 0 0 1 .051.262v1.218H4.535V1.35a.685.685 0 0 1 .419-.63.675.675 0 0 1 .26-.052Z" fill="#0358A7"/><path opacity=".1" d="m15.244 8.246-5.173 2.823-.024.014a.234.234 0 0 1-.054.025l-.168-.095-.021-.011a.348.348 0 0 1-.03-.017l-.013-.008-1.024-.572-.084-.048-.069-.038-.15-.085-3.899-2.18v4.088h10.71V8.245Z" fill="#0A2767"/><path opacity=".1" d="m15.244 8.373-5.173 2.823-.024.014a.235.235 0 0 1-.054.025l-.168-.095-.021-.011a.321.321 0 0 1-.03-.017l-.013-.008-1.024-.572-.084-.048-.069-.038-.15-.085-3.899-2.18v4.088h10.71V8.372Z" fill="#0A2767"/><path opacity=".1" d="m15.244 8.5-5.173 2.822-.024.015a.234.234 0 0 1-.054.025l-.168-.095-.021-.011a.348.348 0 0 1-.03-.017l-.013-.008-1.024-.572-.084-.048-.069-.038-.15-.085-3.899-2.18v4.087h10.71V8.5Z" fill="#0A2767"/><path opacity=".1" d="m15.244 8.626-5.173 2.822-.024.014a.218.218 0 0 1-.054.026l-.168-.095-.021-.011a.348.348 0 0 1-.03-.017l-.013-.008-1.024-.572-.084-.048-.069-.038-.15-.085-3.899-2.18v4.087h10.71V8.626Z" fill="#0A2767"/><path d="m15.829 8.426-.007.003-.002.001-5.518 3.011a.793.793 0 0 1-.753.04.772.772 0 0 1-.074-.04l.26 1.877 5.5 1.653a.782.782 0 0 0 .45-.139.718.718 0 0 0 .314-.592V8.145a.323.323 0 0 1-.17.28Z" fill="#1490DF"/><path opacity=".05" d="m10.517 11.33-.205.111a.794.794 0 0 1-.753.04.798.798 0 0 1-.074-.04l.26 1.877 5.5 1.653a.79.79 0 0 0 .45-.14.73.73 0 0 0 .294-.424l-5.472-3.078Z" fill="#000"/><path opacity=".05" d="M15.947 14.528 10.386 11.4l-.074.04a.794.794 0 0 1-.753.04v.001a.775.775 0 0 1-.074-.04l.26 1.877 5.5 1.653a.79.79 0 0 0 .45-.14.74.74 0 0 0 .252-.303Z" fill="#000"/><path opacity=".05" d="m15.885 14.638-5.63-3.165-.017.009a.794.794 0 0 1-.679 0 .775.775 0 0 1-.074-.04l.26 1.877 5.5 1.653a.79.79 0 0 0 .45-.14.75.75 0 0 0 .19-.194Z" fill="#000"/><path opacity=".05" d="M15.804 14.737 10.15 11.56l-.028-.016-.022-.012a.794.794 0 0 1-.542-.05.775.775 0 0 1-.074-.04l.26 1.877 5.5 1.653a.783.783 0 0 0 .559-.234Z" fill="#000"/><path d="M15.702 14.825a1.025 1.025 0 0 1-.05.033c-.016.01-.034.019-.051.028l-.06.028-.004.001a1.13 1.13 0 0 1-.164.046.59.59 0 0 1-.125.01H4.555a.753.753 0 0 1-.705-.462.765.765 0 0 1-.061-.29V8.143l.173.097.003.001.002.002.569.318 1.06.593 2.593 1.449.076.043.019.01.055.032.04.021.034.02.06.034.016.008.078.043.937.525c.024.015.05.029.075.042l.312.176.198.111h.001l.84.473.226.127.226.126.094.053.131.074 4.095 2.303Z" fill="#28A8EA"/><path opacity=".05" d="M8.567 4.34v7.553a.68.68 0 0 1-.678.682H3.78v-.507h.01V8.143a.336.336 0 0 1 .167-.291l.004-.004.007-.002.568-.322V3.58H7.89a.57.57 0 0 1 .3.087.806.806 0 0 1 .378.673Z" fill="#000"/><path opacity=".075" d="M8.472 4.353v7.414a.69.69 0 0 1-.283.559.47.47 0 0 1-.083.05c-.013.008-.025.013-.038.02a.661.661 0 0 1-.262.053H3.78v-.38h.008V8.144a.336.336 0 0 1 .168-.291l.004-.004.007-.003.568-.322V3.612h3.26a.62.62 0 0 1 .394.149.778.778 0 0 1 .283.592Z" fill="#000"/><path opacity=".1" d="M8.378 4.364v7.276a.693.693 0 0 1-.208.502.618.618 0 0 1-.185.127H7.98a.662.662 0 0 1-.257.053H3.78v-.254h.008V8.144a.336.336 0 0 1 .168-.292l.004-.004.007-.002.568-.322v-3.88H7.7a.653.653 0 0 1 .489.23c.12.135.188.31.189.49Z" fill="#000"/><path opacity=".125" d="M8.283 4.376v7.138a.73.73 0 0 1-.094.364.63.63 0 0 1-.336.282.636.636 0 0 1-.21.036H3.78v-.127h.008V8.144a.336.336 0 0 1 .168-.291l.004-.004.007-.003.568-.321v-3.85h3.07a.674.674 0 0 1 .584.35.7.7 0 0 1 .094.351Z" fill="#000"/><path opacity=".2" d="M8.19 4.389v6.998a.656.656 0 0 1-.472.661.595.595 0 0 1-.159.02H3.79V8.145a.336.336 0 0 1 .167-.292l.004-.004.007-.002.569-.322V3.707H7.51a.676.676 0 0 1 .678.682Z" fill="#000"/><path d="M7.511 3.707H.678A.68.68 0 0 0 0 4.389v6.871a.68.68 0 0 0 .678.682H7.51a.68.68 0 0 0 .678-.682V4.39a.68.68 0 0 0-.678-.682Z" fill="url(#b)"/><path d="M2.273 6.703a1.85 1.85 0 0 1 .724-.804 2.184 2.184 0 0 1 1.15-.29c.372-.008.74.087 1.063.275.304.182.549.449.705.768.17.352.254.739.246 1.13.008.408-.079.813-.254 1.182-.16.33-.411.606-.725.794a2.106 2.106 0 0 1-1.104.283 2.074 2.074 0 0 1-1.087-.278 1.859 1.859 0 0 1-.714-.77 2.43 2.43 0 0 1-.249-1.116 2.697 2.697 0 0 1 .245-1.174Zm.771 1.887c.083.211.224.394.407.529.186.13.409.198.636.192.242.01.48-.06.68-.198a1.16 1.16 0 0 0 .394-.53 2.06 2.06 0 0 0 .126-.739 2.257 2.257 0 0 0-.119-.747 1.184 1.184 0 0 0-.38-.55 1.048 1.048 0 0 0-.674-.209 1.094 1.094 0 0 0-.651.194c-.186.135-.33.32-.416.534a2.13 2.13 0 0 0-.003 1.524Z" fill="#fff"/></g><defs><linearGradient id="b" x1="1.422" y1="3.169" x2="6.812" y2="12.453" gradientUnits="userSpaceOnUse"><stop stop-color="#1784D9"/><stop offset=".5" stop-color="#107AD5"/><stop offset="1" stop-color="#0A63C9"/></linearGradient><clipPath id="a"><path fill="#fff" d="M0 0h16v16H0z"/></clipPath></defs></svg>
